**kern	**kern	**dynam
*part1	*part1	*part1
*staff2	*staff1	*
*I"Piano	*	*
*clefF4	*clefG2	*
*k[b-e-a-d-]	*k[b-e-a-d-]	*
=1	=1	=1
[4.FF [4.F	[4.An [4.c [4.e- [4.f	.
=	=	=
4.FF] 4.F]	4.A] 4.c] 4.e-] 4.f]	.
=	=	=
4FF 4F	4.An 4.c 4.e- 4.f	.
8FF 8F	.	.
=	=	=
4.FF 4.F	4.An; 4.c 4.e- 4.f	.
=||	=||	=||
*M6/8	*M6/8	*
4.BBB- 4.BB-	16d-LL	f
.	16B-J	.
.	8F<	.
.	8fJ	.
4.BBB- 4.BB-	16enLL	.
.	16B-J	.
.	8G<	.
.	8gJ	.
=	=	=
4.BBB- 4.BB-	16d-LL	mf
.	16B-J	.
.	8F<	.
.	8fJ	.
4.BBB- 4.BB-	16enLL	.
.	16B-J	.
.	8G<	.
.	8gJ	.
=	=	=
4.BBB- 4.BB-	16fLL	mp
.	16d-J	.
.	8B-	.
.	8fJ	.
4.BBB- 4.BB-	16d-LL	.
.	16B-J	.
.	8F<	.
.	8d-J	.
=	=	=
4.BBB- 4.BB-	4.F;< 4.B-<	.
4BBB- 4BB-	4F< 4B-<	.
8r	8r	.
==	==	==
*-	*-	*-
!!!system-decoration: {(s1,s2)}
!!!RDF**kern: < = below
